germany/municipalities/07336075.svg

<svg viewBox="0 0 1000 1000" xmlns="http://www.w3.org/2000/svg" xml:space="preserve" style="fill-rule:evenodd;clip-rule:evenodd;stroke-linecap:round;stroke-linejoin:round;stroke-miterlimit:1.5"><path d="M100 590V10h800v580c0 220.766-179.234 400-400 400S100 810.766 100 590z" style="fill:#52c1e7"/><path d="M102 153c33 3 80.628 15.36 102 94 16.46 60.567 80.783 54.199 122 99 23 25 8 63 49 98s67.694 37.819 77 48c31.764 34.752 25.056 72.068 42 89 32.516 32.492 69.5 44 92 70s17.215 54.833 43 86c18.997 22.961 60.803 41.661 78 66 19.667 27.833 35.55 53.205 40 101 48.939-36.555 91.598-82.217 119-150 0 0-5.232-36.65-29.493-63.682-23.514-26.2-65.874-42.517-78.507-60.318-18.465-26.018-24.722-69.227-46-93-24.167-27-76.833-50.5-101-77-20.902-22.92-23.5-58.833-44-82s-57.422-32.764-79-57c-23-25.833-35.833-70.667-59-98-22.287-26.295-61.167-37.833-82-63-20.636-24.928-21.287-57.937-43-88-20.774-28.762-70.539-53.895-100-66H102v147z" style="fill:#fff"/><path d="M97 153a5 5 0 0 0 4.547 4.979c15.765 1.434 35.047 5.029 52.917 17.731 17.993 12.791 34.431 34.774 44.711 72.601 8.674 31.917 29.769 46.375 54.315 58.579 22.781 11.325 48.673 20.585 68.83 42.495 10.921 11.87 12.543 26.934 16.579 43.078 4.461 17.844 11.336 36.97 32.855 55.34 25.083 21.412 44.911 31.017 58.813 37.513 8.3 3.878 14.344 6.339 17.742 10.057 18.387 20.117 23.298 41.178 27.907 58.293 3.446 12.795 6.917 23.544 14.25 30.871 16.546 16.534 34.21 27.755 50.619 38.124 15.681 9.91 30.192 18.967 41.134 31.611 10.768 12.442 14.786 25.612 19.299 39.351 4.888 14.883 10.261 30.406 23.63 46.564 9.742 11.775 25.281 22.52 40.64 33.379 14.479 10.237 28.815 20.554 37.129 32.319 19.199 27.172 34.76 51.919 39.105 98.579a4.998 4.998 0 0 0 7.97 3.542c49.627-37.069 92.856-83.396 120.644-152.132.33-.817.438-1.708.314-2.581 0 0-5.456-38.163-30.721-66.315-14.397-16.041-35.666-28.521-53.203-39.806-10.819-6.962-20.177-13.343-24.948-20.066-9.012-12.698-14.979-29.62-21.355-46.239-6.76-17.622-13.986-34.9-24.997-47.202-12.331-13.776-31.888-26.717-51.489-39.537-18.828-12.314-37.699-24.51-49.543-37.497-10.046-11.016-15.596-25.208-21.195-39.376-6.041-15.287-12.124-30.555-22.755-42.568-10.593-11.972-25.373-20.518-40.349-29.121-14.02-8.055-28.222-16.166-38.661-27.891-11.235-12.62-19.932-29.915-28.705-47.359-9.163-18.22-18.394-36.602-30.215-50.549-11.476-13.541-27.173-23.35-42.735-32.946-14.629-9.021-29.142-17.826-39.227-30.009-9.942-12.01-14.987-26.008-20.244-40.583-5.606-15.54-11.401-31.714-22.555-47.157-21.247-29.417-72.02-55.316-102.153-67.697A4.993 4.993 0 0 0 204 1H102a5 5 0 0 0-5 5v147zm5 0c33 3 80.628 15.36 102 94 16.46 60.567 80.783 54.199 122 99 23 25 8 63 49 98s67.694 37.819 77 48c31.764 34.752 25.056 72.068 42 89 32.516 32.492 69.5 44 92 70s17.215 54.833 43 86c18.997 22.961 60.803 41.661 78 66 19.667 27.833 35.55 53.205 40 101 48.939-36.555 91.598-82.217 119-150 0 0-5.232-36.65-29.493-63.682-23.514-26.2-65.874-42.517-78.507-60.318-18.465-26.018-24.722-69.227-46-93-24.167-27-76.833-50.5-101-77-20.902-22.92-23.5-58.833-44-82s-57.422-32.764-79-57c-23-25.833-35.833-70.667-59-98-22.287-26.295-61.167-37.833-82-63-20.636-24.928-21.287-57.937-43-88-20.774-28.762-70.539-53.895-100-66H102v147z"/><path d="M90 590V0h820v590c0 226.285-183.715 410-410 410S90 816.285 90 590zm20 0V20h780v570c0 215.247-174.753 390-390 390S110 805.247 110 590z"/><path d="M723.718 127.878c.231-1.095 1.181-1.878 2.282-1.878s2.051.783 2.282 1.878l20.95 99.664 95.273-31.364a2.315 2.315 0 0 1 2.739 1.072c.55.97.359 2.2-.458 2.95l-74.322 68.3 74.322 68.3c.817.75 1.008 1.98.458 2.95a2.315 2.315 0 0 1-2.739 1.072l-95.273-31.364-20.95 99.664c-.231 1.095-1.181 1.878-2.282 1.878s-2.051-.783-2.282-1.878l-20.95-99.664-95.273 31.364a2.315 2.315 0 0 1-2.739-1.072c-.55-.97-.359-2.2.458-2.95l74.322-68.3-74.322-68.3a2.405 2.405 0 0 1-.458-2.95 2.315 2.315 0 0 1 2.739-1.072l95.273 31.364 20.95-99.664z" style="fill:#f9dc17" transform="matrix(.98974 -.57143 .5614 .97238 -163.396 410.981)"/><path d="m619.933 123.312 33.512 103.613-106.487 22.785a7.666 7.666 0 0 0 0 14.995l106.487 22.784-33.512 103.613a7.667 7.667 0 0 0 12.986 7.497l72.976-80.828 72.976 80.829a7.667 7.667 0 0 0 12.985-7.497l-33.513-103.614 106.488-22.785a7.666 7.666 0 0 0 0-14.994l-106.487-22.784 33.512-103.614a7.667 7.667 0 0 0-12.986-7.497l-72.976 80.829-72.976-80.83a7.667 7.667 0 0 0-12.985 7.498zm4.757-1.539a2.668 2.668 0 0 1 4.517-2.608l76.687 84.94 76.688-84.94a2.667 2.667 0 0 1 4.516 2.608l-35.216 108.883L863.785 254.6a2.666 2.666 0 0 1 0 5.215l-111.903 23.944L787.1 392.64a2.668 2.668 0 0 1-4.517 2.608l-76.687-84.94-76.688 84.94a2.667 2.667 0 0 1-4.516-2.608l35.216-108.883-111.904-23.944a2.666 2.666 0 0 1 0-5.214l111.904-23.944-35.217-108.883z"/><path d="M316.33 640.28C319.844 620.421 336.533 606 356 606c19.467 0 36.156 14.421 39.67 34.28l2.68 15.14 13.981-5.163c18.339-6.773 38.725 1.007 48.458 18.493 9.733 17.486 6.037 39.687-8.788 52.773L440.7 731.5l11.301 9.977c14.825 13.086 18.521 35.287 8.788 52.773-9.733 17.486-30.119 25.266-48.458 18.493l-13.981-5.163-2.68 15.14C392.156 842.579 375.467 857 356 857c-19.467 0-36.156-14.421-39.67-34.28l-2.68-15.14-13.981 5.163c-18.339 6.773-38.725-1.007-48.458-18.493-9.733-17.486-6.037-39.687 8.788-52.773L271.3 731.5l-11.301-9.977c-14.825-13.086-18.521-35.287-8.788-52.773 9.733-17.486 30.119-25.266 48.458-18.493l13.981 5.163 2.68-15.14z" style="fill:#f9dc17" transform="matrix(1.19835 0 0 1.15538 -80.217 -140.159)"/><path d="m293.939 598.705-2.151 11.714-11.22-3.995c-24.25-8.634-51.206 1.285-64.076 23.577-12.872 22.293-7.983 50.598 11.619 67.281l9.07 7.72-9.07 7.719c-19.602 16.683-24.49 44.988-11.62 67.28 12.87 22.293 39.827 32.212 64.078 23.577l11.219-3.994 2.15 11.714c4.648 25.317 26.715 43.704 52.457 43.704s47.81-18.387 52.457-43.704l2.15-11.714 11.22 3.994c24.25 8.635 51.206-1.284 64.077-23.576 12.871-22.293 7.982-50.598-11.62-67.281l-9.07-7.72 9.07-7.719c19.602-16.683 24.491-44.988 11.62-67.28-12.87-22.293-39.826-32.212-64.077-23.578l-11.22 3.995-2.15-11.714c-4.647-25.317-26.715-43.704-52.457-43.704s-47.81 18.387-52.456 43.704zm4.918.903c4.21-22.945 24.21-39.607 47.538-39.607 23.328 0 43.328 16.662 47.539 39.607l3.211 17.492 16.754-5.965c21.977-7.825 46.407 1.163 58.07 21.366 11.664 20.203 7.235 45.854-10.531 60.973l-13.543 11.527 13.543 11.528c17.766 15.119 22.195 40.77 10.531 60.973-11.663 20.203-36.093 29.191-58.07 21.366l-16.754-5.965-3.211 17.492c-4.211 22.945-24.21 39.607-47.539 39.607-23.328 0-43.327-16.662-47.538-39.607l-3.212-17.492-16.754 5.965c-21.977 7.825-46.406-1.163-58.07-21.366-11.663-20.203-7.234-45.854 10.531-60.973L244.895 705l-13.543-11.527c-17.765-15.12-22.194-40.77-10.53-60.973 11.663-20.203 36.092-29.191 58.069-21.366l16.754 5.965 3.212-17.492z"/><path d="M346.394 655c-27.596 0-50 22.404-50 50s22.404 50 50 50 50-22.404 50-50-22.404-50-50-50zm0 5c24.836 0 45 20.164 45 45s-20.164 45-45 45-45-20.164-45-45 20.164-45 45-45z"/><path d="M391.394 705c0 24.836-20.164 45-45 45" style="fill:none;stroke:#000;stroke-width:6.92px" transform="translate(96.22 195.833) scale(.72222)"/><g><path d="M391.394 705c0 24.836-20.164 45-45 45" style="fill:none;stroke:#000;stroke-width:10px" transform="matrix(.5 0 0 .5 173.197 352.5)"/></g><g><path d="M335 617v30" style="fill:none;stroke:#000;stroke-width:5px;stroke-linejoin:miter;stroke-miterlimit:22" transform="translate(6.394 2)"/><path d="M335 617v30" style="fill:none;stroke:#000;stroke-width:5px;stroke-linejoin:miter;stroke-miterlimit:22" transform="rotate(-60 344.93 698.463)"/><path d="M335 617v30" style="fill:none;stroke:#000;stroke-width:5px;stroke-linejoin:miter;stroke-miterlimit:22" transform="rotate(-120 343.775 702.155)"/><path d="M335 617v30" style="fill:none;stroke:#000;stroke-width:5px;stroke-linejoin:miter;stroke-miterlimit:22" transform="rotate(180 343.197 704)"/><path d="M335 617v30" style="fill:none;stroke:#000;stroke-width:5px;stroke-linejoin:miter;stroke-miterlimit:22" transform="rotate(120 342.62 705.846)"/><path d="M335 617v30" style="fill:none;stroke:#000;stroke-width:5px;stroke-linejoin:miter;stroke-miterlimit:22" transform="rotate(60 341.465 709.538)"/><path d="M335 617v30" style="fill:none;stroke:#000;stroke-width:5px;stroke-linejoin:miter;stroke-miterlimit:22" transform="translate(16.394 2)"/><path d="M335 617v30" style="fill:none;stroke:#000;stroke-width:5px;stroke-linejoin:miter;stroke-miterlimit:22" transform="rotate(-60 339.929 689.803)"/><path d="M335 617v30" style="fill:none;stroke:#000;stroke-width:5px;stroke-linejoin:miter;stroke-miterlimit:22" transform="rotate(-120 338.775 699.268)"/><path d="M335 617v30" style="fill:none;stroke:#000;stroke-width:5px;stroke-linejoin:miter;stroke-miterlimit:22" transform="rotate(180 338.197 704)"/><path d="M335 617v30" style="fill:none;stroke:#000;stroke-width:5px;stroke-linejoin:miter;stroke-miterlimit:22" transform="rotate(60 336.465 718.198)"/><path d="M335 617v30" style="fill:none;stroke:#000;stroke-width:5px;stroke-linejoin:miter;stroke-miterlimit:22" transform="rotate(120 337.62 708.733)"/></g></svg>

<?xml version="1.0" encoding="UTF-8" standalone="no"?>
<!DOCTYPE svg PUBLIC "-//W3C//DTD SVG 1.1//EN" "http://www.w3.org/Graphics/SVG/1.1/DTD/svg11.dtd">
<svg width="100%" height="100%" viewBox="0 0 1000 1000" version="1.1" xmlns="http://www.w3.org/2000/svg" xmlns:xlink="http://www.w3.org/1999/xlink" xml:space="preserve" xmlns:serif="http://www.serif.com/" style="fill-rule:evenodd;clip-rule:evenodd;stroke-linecap:round;stroke-linejoin:round;stroke-miterlimit:1.5;">
    <path d="M100,590L100,10C100,10 900,10 900,10C900,10 900,590 900,590C900,810.766 720.766,990 500,990C279.234,990 100,810.766 100,590Z" style="fill:rgb(82,193,231);"/>
    <path d="M102,153C135,156 182.628,168.36 204,247C220.46,307.567 284.783,301.199 326,346C349,371 334,409 375,444C416,479 442.694,481.819 452,492C483.764,526.752 477.056,564.068 494,581C526.516,613.492 563.5,625 586,651C608.5,677 603.215,705.833 629,737C647.997,759.961 689.803,778.661 707,803C726.667,830.833 742.55,856.205 747,904C795.939,867.445 838.598,821.783 866,754C866,754 860.768,717.35 836.507,690.318C812.993,664.118 770.633,647.801 758,630C739.535,603.982 733.278,560.773 712,537C687.833,510 635.167,486.5 611,460C590.098,437.08 587.5,401.167 567,378C546.5,354.833 509.578,345.236 488,321C465,295.167 452.167,250.333 429,223C406.713,196.705 367.833,185.167 347,160C326.364,135.072 325.713,102.063 304,72C283.226,43.238 233.461,18.105 204,6L102,6L102,153Z" style="fill:white;"/>
    <path d="M97,153C97,155.586 98.972,157.745 101.547,157.979C117.312,159.413 136.594,163.008 154.464,175.71C172.457,188.501 188.895,210.484 199.175,248.311C207.849,280.228 228.944,294.686 253.49,306.89C276.271,318.215 302.163,327.475 322.32,349.385C333.241,361.255 334.863,376.319 338.899,392.463C343.36,410.307 350.235,429.433 371.754,447.803C396.837,469.215 416.665,478.82 430.567,485.316C438.867,489.194 444.911,491.655 448.309,495.373C466.696,515.49 471.607,536.551 476.216,553.666C479.662,566.461 483.133,577.21 490.466,584.537C507.012,601.071 524.676,612.292 541.085,622.661C556.766,632.571 571.277,641.628 582.219,654.272C592.987,666.714 597.005,679.884 601.518,693.623C606.406,708.506 611.779,724.029 625.148,740.187C634.89,751.962 650.429,762.707 665.788,773.566C680.267,783.803 694.603,794.12 702.917,805.885C722.116,833.057 737.677,857.804 742.022,904.464C742.189,906.265 743.317,907.835 744.969,908.569C746.622,909.304 748.543,909.088 749.992,908.006C799.619,870.937 842.848,824.61 870.636,755.874C870.966,755.057 871.074,754.166 870.95,753.293C870.95,753.293 865.494,715.13 840.229,686.978C825.832,670.937 804.563,658.457 787.026,647.172C776.207,640.21 766.849,633.829 762.078,627.106C753.066,614.408 747.099,597.486 740.723,580.867C733.963,563.245 726.737,545.967 715.726,533.665C703.395,519.889 683.838,506.948 664.237,494.128C645.409,481.814 626.538,469.618 614.694,456.631C604.648,445.615 599.098,431.423 593.499,417.255C587.458,401.968 581.375,386.7 570.744,374.687C560.151,362.715 545.371,354.169 530.395,345.566C516.375,337.511 502.173,329.4 491.734,317.675C480.499,305.055 471.802,287.76 463.029,270.316C453.866,252.096 444.635,233.714 432.814,219.767C421.338,206.226 405.641,196.417 390.079,186.821C375.45,177.8 360.937,168.995 350.852,156.812C340.91,144.802 335.865,130.804 330.608,116.229C325.002,100.689 319.207,84.515 308.053,69.072C286.806,39.655 236.033,13.756 205.9,1.375C205.297,1.127 204.652,1 204,1L102,1C99.239,1 97,3.239 97,6L97,153ZM102,153C135,156 182.628,168.36 204,247C220.46,307.567 284.783,301.199 326,346C349,371 334,409 375,444C416,479 442.694,481.819 452,492C483.764,526.752 477.056,564.068 494,581C526.516,613.492 563.5,625 586,651C608.5,677 603.215,705.833 629,737C647.997,759.961 689.803,778.661 707,803C726.667,830.833 742.55,856.205 747,904C795.939,867.445 838.598,821.783 866,754C866,754 860.768,717.35 836.507,690.318C812.993,664.118 770.633,647.801 758,630C739.535,603.982 733.278,560.773 712,537C687.833,510 635.167,486.5 611,460C590.098,437.08 587.5,401.167 567,378C546.5,354.833 509.578,345.236 488,321C465,295.167 452.167,250.333 429,223C406.713,196.705 367.833,185.167 347,160C326.364,135.072 325.713,102.063 304,72C283.226,43.238 233.461,18.105 204,6L102,6L102,153Z"/>
    <path d="M90,590L90,0L910,0L910,590C910,816.285 726.285,1000 500,1000C273.715,1000 90,816.285 90,590ZM110,590L110,20C110,20 766.235,20 890,20C890,20 890,590 890,590C890,805.247 715.247,980 500,980C284.753,980 110,805.247 110,590Z"/>
    <g transform="matrix(0.989743,-0.571429,0.561404,0.972379,-163.396,410.981)">
        <path d="M723.718,127.878C723.949,126.783 724.899,126 726,126C727.101,126 728.051,126.783 728.282,127.878L749.232,227.542L844.505,196.178C845.552,195.833 846.693,196.28 847.244,197.25C847.794,198.22 847.603,199.45 846.786,200.2L772.464,268.5L846.786,336.8C847.603,337.55 847.794,338.78 847.244,339.75C846.693,340.72 845.552,341.167 844.505,340.822L749.232,309.458L728.282,409.122C728.051,410.217 727.101,411 726,411C724.899,411 723.949,410.217 723.718,409.122L702.768,309.458L607.495,340.822C606.448,341.167 605.307,340.72 604.756,339.75C604.206,338.78 604.397,337.55 605.214,336.8L679.536,268.5L605.214,200.2C604.397,199.45 604.206,198.22 604.756,197.25C605.307,196.28 606.448,195.833 607.495,196.178L702.768,227.542L723.718,127.878Z" style="fill:rgb(249,220,23);"/>
        <path d="M719.44,126.946L699.504,221.787C699.504,221.787 608.842,191.941 608.842,191.941C605.831,190.95 602.55,192.234 600.968,195.023C599.386,197.812 599.933,201.347 602.282,203.506C602.282,203.506 673.007,268.5 673.007,268.5C673.007,268.5 602.282,333.494 602.282,333.494C599.933,335.653 599.386,339.188 600.968,341.977C602.55,344.766 605.831,346.05 608.842,345.059C608.842,345.059 699.504,315.213 699.504,315.213C699.504,315.213 719.44,410.054 719.44,410.054C720.102,413.203 722.836,415.453 726,415.453C729.164,415.453 731.898,413.203 732.56,410.054C732.56,410.054 752.496,315.213 752.496,315.213C752.496,315.213 843.158,345.059 843.158,345.059C846.169,346.05 849.45,344.766 851.032,341.977C852.614,339.188 852.067,335.653 849.718,333.494C849.718,333.494 778.993,268.5 778.993,268.5C778.993,268.5 849.718,203.506 849.718,203.506C852.067,201.347 852.614,197.812 851.032,195.023C849.45,192.234 846.169,190.95 843.158,191.941C843.158,191.941 752.496,221.787 752.496,221.787C752.496,221.787 732.56,126.946 732.56,126.946C731.898,123.797 729.164,121.547 726,121.547C722.836,121.547 720.102,123.797 719.44,126.946ZM723.718,127.878C723.949,126.783 724.899,126 726,126C727.101,126 728.051,126.783 728.282,127.878L749.232,227.542L844.505,196.178C845.552,195.833 846.693,196.28 847.244,197.25C847.794,198.22 847.603,199.45 846.786,200.2L772.464,268.5L846.786,336.8C847.603,337.55 847.794,338.78 847.244,339.75C846.693,340.72 845.552,341.167 844.505,340.822L749.232,309.458L728.282,409.122C728.051,410.217 727.101,411 726,411C724.899,411 723.949,410.217 723.718,409.122L702.768,309.458L607.495,340.822C606.448,341.167 605.307,340.72 604.756,339.75C604.206,338.78 604.397,337.55 605.214,336.8L679.536,268.5L605.214,200.2C604.397,199.45 604.206,198.22 604.756,197.25C605.307,196.28 606.448,195.833 607.495,196.178L702.768,227.542L723.718,127.878Z"/>
    </g>
    <g transform="matrix(1.19835,0,0,1.15538,-80.2174,-140.159)">
        <path d="M316.33,640.28C319.844,620.421 336.533,606 356,606C375.467,606 392.156,620.421 395.67,640.28L398.35,655.42L412.331,650.257C430.67,643.484 451.056,651.264 460.789,668.75C470.522,686.236 466.826,708.437 452.001,721.523L440.7,731.5L452.001,741.477C466.826,754.563 470.522,776.764 460.789,794.25C451.056,811.736 430.67,819.516 412.331,812.743L398.35,807.58L395.67,822.72C392.156,842.579 375.467,857 356,857C336.533,857 319.844,842.579 316.33,822.72L313.65,807.58L299.669,812.743C281.33,819.516 260.944,811.736 251.211,794.25C241.478,776.764 245.174,754.563 259.999,741.477L271.3,731.5L259.999,721.523C245.174,708.437 241.478,686.236 251.211,668.75C260.944,651.264 281.33,643.484 299.669,650.257L313.65,655.42L316.33,640.28Z" style="fill:rgb(249,220,23);"/>
        <path d="M312.226,639.499L310.431,649.637C310.431,649.637 301.069,646.18 301.069,646.18C280.832,638.707 258.338,647.292 247.598,666.586C236.857,685.881 240.937,710.379 257.294,724.819C257.294,724.819 264.863,731.5 264.863,731.5C264.863,731.5 257.294,738.181 257.294,738.181C240.937,752.621 236.857,777.119 247.598,796.414C258.338,815.708 280.832,824.293 301.069,816.82C301.069,816.82 310.431,813.363 310.431,813.363C310.431,813.363 312.226,823.501 312.226,823.501C316.104,845.414 334.519,861.328 356,861.328C377.481,861.328 395.896,845.414 399.774,823.501C399.774,823.501 401.569,813.363 401.569,813.363C401.569,813.363 410.931,816.82 410.931,816.82C431.168,824.293 453.662,815.708 464.402,796.414C475.143,777.119 471.063,752.621 454.706,738.181C454.706,738.181 447.137,731.5 447.137,731.5C447.137,731.5 454.706,724.819 454.706,724.819C471.063,710.379 475.143,685.881 464.402,666.586C453.662,647.292 431.168,638.707 410.931,646.18C410.931,646.18 401.569,649.637 401.569,649.637C401.569,649.637 399.774,639.499 399.774,639.499C395.896,617.586 377.481,601.672 356,601.672C334.519,601.672 316.104,617.586 312.226,639.499ZM316.33,640.28C319.844,620.421 336.533,606 356,606C375.467,606 392.156,620.421 395.67,640.28L398.35,655.42L412.331,650.257C430.67,643.484 451.056,651.264 460.789,668.75C470.522,686.236 466.826,708.437 452.001,721.523L440.7,731.5L452.001,741.477C466.826,754.563 470.522,776.764 460.789,794.25C451.056,811.736 430.67,819.516 412.331,812.743L398.35,807.58L395.67,822.72C392.156,842.579 375.467,857 356,857C336.533,857 319.844,842.579 316.33,822.72L313.65,807.58L299.669,812.743C281.33,819.516 260.944,811.736 251.211,794.25C241.478,776.764 245.174,754.563 259.999,741.477L271.3,731.5L259.999,721.523C245.174,708.437 241.478,686.236 251.211,668.75C260.944,651.264 281.33,643.484 299.669,650.257L313.65,655.42L316.33,640.28Z"/>
    </g>
    <path d="M346.394,655C318.798,655 296.394,677.404 296.394,705C296.394,732.596 318.798,755 346.394,755C373.99,755 396.394,732.596 396.394,705C396.394,677.404 373.99,655 346.394,655ZM346.394,660C371.23,660 391.394,680.164 391.394,705C391.394,729.836 371.23,750 346.394,750C321.558,750 301.394,729.836 301.394,705C301.394,680.164 321.558,660 346.394,660Z"/>
    <g transform="matrix(0.722222,0,0,0.722222,96.2206,195.833)">
        <path d="M391.394,705C391.394,729.836 371.23,750 346.394,750" style="fill:none;stroke:black;stroke-width:6.92px;"/>
    </g>
    <g transform="matrix(0.5,0,0,0.5,173.197,352.5)">
        <path d="M391.394,705C391.394,729.836 371.23,750 346.394,750" style="fill:none;stroke:black;stroke-width:10px;"/>
    </g>
    <g>
        <g transform="matrix(1,0,0,1,6.39419,2)">
            <path d="M335,617L335,647" style="fill:none;stroke:black;stroke-width:5px;stroke-linejoin:miter;stroke-miterlimit:22;"/>
        </g>
        <g transform="matrix(0.5,-0.866025,0.866025,0.5,-432.422,647.949)">
            <path d="M335,617L335,647" style="fill:none;stroke:black;stroke-width:5px;stroke-linejoin:miter;stroke-miterlimit:22;"/>
        </g>
        <g transform="matrix(-0.5,-0.866025,0.866025,-0.5,-92.4217,1350.95)">
            <path d="M335,617L335,647" style="fill:none;stroke:black;stroke-width:5px;stroke-linejoin:miter;stroke-miterlimit:22;"/>
        </g>
        <g transform="matrix(-1,1.66533e-16,-1.66533e-16,-1,686.394,1408)">
            <path d="M335,617L335,647" style="fill:none;stroke:black;stroke-width:5px;stroke-linejoin:miter;stroke-miterlimit:22;"/>
        </g>
        <g transform="matrix(-0.5,0.866025,-0.866025,-0.5,1125.21,762.051)">
            <path d="M335,617L335,647" style="fill:none;stroke:black;stroke-width:5px;stroke-linejoin:miter;stroke-miterlimit:22;"/>
        </g>
        <g transform="matrix(0.5,0.866025,-0.866025,0.5,785.21,59.0514)">
            <path d="M335,617L335,647" style="fill:none;stroke:black;stroke-width:5px;stroke-linejoin:miter;stroke-miterlimit:22;"/>
        </g>
        <g transform="matrix(1,0,0,1,16.3942,2)">
            <path d="M335,617L335,647" style="fill:none;stroke:black;stroke-width:5px;stroke-linejoin:miter;stroke-miterlimit:22;"/>
        </g>
        <g transform="matrix(0.5,-0.866025,0.866025,0.5,-427.422,639.288)">
            <path d="M335,617L335,647" style="fill:none;stroke:black;stroke-width:5px;stroke-linejoin:miter;stroke-miterlimit:22;"/>
        </g>
        <g transform="matrix(-0.5,-0.866025,0.866025,-0.5,-97.4217,1342.29)">
            <path d="M335,617L335,647" style="fill:none;stroke:black;stroke-width:5px;stroke-linejoin:miter;stroke-miterlimit:22;"/>
        </g>
        <g transform="matrix(-1,1.66533e-16,-1.66533e-16,-1,676.394,1408)">
            <path d="M335,617L335,647" style="fill:none;stroke:black;stroke-width:5px;stroke-linejoin:miter;stroke-miterlimit:22;"/>
        </g>
        <g transform="matrix(0.5,0.866025,-0.866025,0.5,790.21,67.7116)">
            <path d="M335,617L335,647" style="fill:none;stroke:black;stroke-width:5px;stroke-linejoin:miter;stroke-miterlimit:22;"/>
        </g>
        <g transform="matrix(-0.5,0.866025,-0.866025,-0.5,1120.21,770.712)">
            <path d="M335,617L335,647" style="fill:none;stroke:black;stroke-width:5px;stroke-linejoin:miter;stroke-miterlimit:22;"/>
        </g>
    </g>
</svg>
